X:1
T:Ave verum Corpus
T:Ave verum Corpus
T:William Byrd (1542/3-1623)
T:Set by C. Höcker - May 2019 - CC0
T:Set by C. Höcker - May 2019 - CC0
C:William Byrd
Z:Set by C. Höcker - May 2019 - CC0
%%score [ 1 2 3 4 ]
L:1/8
Q:1/4=72
M:4/4
K:Bb
V:1 treble nm="Soprano"
V:2 treble nm="Alto"
V:3 treble-8 nm="Tenore"
V:4 bass nm="Basso"
V:1
 G8 | ^F4 A4- | A2 G2 (^F2 G2 | G^F/=E/ F2) G4 | A4 B4 | c2 c2 d4- | d2 c2 B3 B | A4 z2 G2- | %8
w: A-|ve ve-|* rum Cor- *|* * * * pus,|na- tum|de Ma- ri-|* a Vir gi|ne; Ve-|
 G2 F2 E4 | D4 z2 F2- | F2 G2 A4 | A4 z2 G2 | B4 A4- | A2 B2 G3 G |[M:3/4] ^F4 z2 | G4 G2 | A4 G2 | %17
w: * re  pas-|sum, im-|* mo- la-|tum in|cru- ce|_ pro ho mi|ne:|Cu- ius|la- tus|
 B3 A (A2- |[M:4/4] A2 G2) A4 | c4 B2 A2- | A2 G2 F3 F | F2 F4 F2 |[M:3/4] F4 z2 | G4 G2 | G4 G2 | %25
w: per- fo- ra-|* * tum,|un- da flu-|* xit san- gui-|ne, san- gui-|ne:|Es- to|no- bis|
 A4 A2 |[M:4/4] B4 A2 A2 | c6 B2- | B2 A4 B2- | B2 A2 B2 F2 |: B4 G4 | z2 G2 B4 | A4 z2 G2 | %33
w: prae- gus-|ta- tum in|mor- tis|* ex- a-|* mi- ne.   O|dul- cis,|O pi-|e, O|
 d6 c2- | c2 (B4 AG) | A2 A2 (B3 A | G4) ^F4 | z8 | z4 G3 B | A2 G2 ^F4 | G2 z2 z4 | A3 c B2 A2 | %42
w: Je- su|* Fi- * *|li Ma- ri- *|* ae,||mi- se-|re- re me-|i,|mi- se- re- re|
 (A2 G2) ^F2 (A2- | AG G4 ^F2) |1 G4 z2 D2 :|2 G8 || G8 | G8- | G8 |] %49
w: me- * i, me-||i. O|\- i.|A-|men.|_|
V:2
 D8 | D4 C4- | C2 C2 D4- | D4 D4 | F4 F4 | F2 F2 F4- | F2 F2 D3 D | D4 z2 B,2- | B,2 B,2 B,4 | %9
w: A-|ve ve-|* rum Cor-|* pus,|na- tum|de Ma- ri-|* a Vir- gi-|ne: Ve-|* re pas-|
 B,4 D4- | D2 =E2 F4- | F4 C4 | z2 B,2 F3 F | C2 D4 C2 |[M:3/4] D4 z2 | =E4 E2 | F4 =E2 | F4 =E2 | %18
w: sum, im-|* mo- la-|* tum|in cru- ce|pro  ho- mi-|ne:|Cu- ius|la- tus|per- fo-|
[M:4/4] (F2 =ED) C2 F2- | F2 !courtesy!_E2 D4 | C4 D3 D | D4 C3 C |[M:3/4] D4 z2 | E4 E2 | D4 =E2 | %25
w: ra- * * tum, un-|* da flu-|xit san- gui-|ne, san- gui-|ne:|Es- to|no- bis|
 F4 F2 |[M:4/4] F4 F2 F2 | G4 G2 B,2 | F4 F2 F2 | F3 E D4 |: z2 D2 E4 | D4 z2 D2 | D4 =B,4 | %33
w: prae- gus-|ta- tum in|mor- tis, in|mor- tis ex-|a- mi- ne|O dul-|cis, O|pi- e,|
 z2 B,2 F4 | E2 D4 C2 | z2 F,2 (B,4- | B,2 A,G,) A,4 | B,3 D C2 B,2 | A,4 B,4 | C3 E D2 A,2 | %40
w: O Je-|su Fi- li|Ma- ri-|* * * ae,|mi- se- re- re|me- i,|mi- se- re- re,|
 D3 F E2 D2 | C2 A,2 D3 C | A,2 (B,C) (D2 E2 | D2 C2 D4) |1 =B,8 :|2 =B,4 (C4- || %46
w: mi- se- re- re|me- i, mi- se-|re- re * me- *||i.|\- i. A-|
 C2 !courtesy!_B,2 E4- | E2 DC) D4- | D8 |] %49
w: |* * * men.|_|
V:3
 B8 | A8 | c6 B2 | A4 =B4 | c4 d4 | F2 F2 B4- | B2 A2 G3 G | ^F4 z2 (GA | B2) F2 G4 | F4 B4 | %10
w: A-|ve|ve- rum|Cor- pus,|na- tum|de Ma- ri-|* a Vir- gi-|ne: Ve- *|* re pas-|sum, im-|
 A2 c4 F2 | z2 c2 !courtesy!_e4- | e2 d4 c2 | (f3 F G2) G2 |[M:3/4] A4 z2 | c4 c2 | c4 c2 | d4 c2 | %18
w: mo- la- tum|in cru-|* ce pro|ho- * * mi-|ne:|Cu- ius|la- tus|per- fo-|
[M:4/4] B4 A4 | z8 | z2 c4 B2 | A3/2 F/ B4 A2 |[M:3/4] B4 z2 | B2 G2 (c2- | c2 =B2) c2- | %25
w: ra- tum,||un- da|flu- xit  san- gui-|ne:|Es- to no-|* * bis|
 c2 A2 A2 |[M:4/4] d4 c2 c2 | e6 d2- | d2 c2 (d2 cB | c2) c2 B4 |: z2 B2 c4 | =B4 z2 G2 | ^F4 G4- | %33
w: _ prae- gus-|ta- tum in|mor- tis|_ ex- a- * *|* mi- ne.|O dul-|cis, O|pi- e,|
 G4 z4 | z2 B2 f3 e | d2 c2 e2 (d2- | d2 c2) d4 | G3 B A2 G2 | ^F4 G4 | z4 A3 c | B2 A3 (G- G2-) | %41
w: _|O Je- su|Fi- li Ma- ri-|* * ae,|mi- se- re- re|me- i,|mi- se-|re- re me- *|
 G2 ^F2 G2 !courtesy!^F2- | F2 G2 A3 c | B2 AG A4 |1 G8 :|2 G4 (e4- || e2 d3 c c2- | c2 =BA) B4- | %48
w: * * i, me-|* i, mi- se-|re- re _ me-|i.|\- i. A-||* * * men.|
 B8 |] %49
w: _|
V:4
 G,8 | D,4 !courtesy!=F,4- | F,2 E,2 D,4- | D,4 G,4 | F,4 B,,2 B,2- | B,2 A,2 B,2 B,,2 | %6
w: A-|ve ve-|* rum Cor-|* pus,|na- tum de|_ Ma- ri- a|
 (F,3 E,/F,/ G,2) G,,2 | D,4 z2 E,2- | E,2 D,2 E,4 | B,,6 D,2- | D,2 C,2 F,4 | F,,4 z2 C,2 | %12
w: Vir- * * * gi-|ne: Ve-|* re pas-|sum, im-|* mo- la-|tum in|
 G,4 F,4- | F,2 B,,2 E,3 E, |[M:3/4] D,4 z2 | C,4 C,2 | F,4 C,2 | B,,4 C,2 | %18
w: cru- ce|* pro ho- mi-|ne:|Cu- ius|la- tus|per- fo-|
[M:4/4] (D,2 =E,2) F,4 | z4 z2 F,2- | F,2 E,2 D,4- | D,2 B,,2 F,3 F, |[M:3/4] B,,4 z2 | E,4 C,2 | %24
w: ra- * tum,|un-|* da flu-|* xit san- gui-|ne:|Es- to|
 G,4 C,2 | F,4 D,2 |[M:4/4] B,,4 F,4 | z2 C,2 G,4 | F,2 F,2 F,4- | F,2 F,2 B,,4 |: z2 G,,2 C,4 | %31
w: no- bis|prae- gus-|ta- tum|in mor-|tis ex- a-|* mi- ne.|O dul-|
 G,,4 z2 G,,2 | D,4 G,,2 G,2 | !courtesy!_B,6 A,2 | G,4 F,4 | F,4 (G,3 F, | E,4) D,4 | z8 | %38
w: cis, O|pi- e, O|Je- su|Fi- li|Ma- ri- *|* ae,||
 D,3 !courtesy!=F, E,3 D, | C,4 D,4 | G,,2 D,2 C,2 B,,2 | A,,4 G,,2 D,2- | %42
w: mi- se- re- re|me- i,|mi- se- re- re|me- i, mi-|
 D, !courtesy!=F, E,2 D,2 (C,2 | D,2 E,2 D,4) |1 G,,8 :|2 G,,4 (C,3 D, || E,F, G,2 E,2 C,2) | %47
w: * se- re- re me-||i.|\- i. A- *||
 G,8- | G,8 |] %49
w: men.|_|

